X:1
T:Etenim Dominus
T:Etenim Dominus
T:Leonard Heydenhamer
T:Source : Trium vocum cantiones---Nürnberg---J.Petreius---1541. Editor : André Vierendeels (15/04/16).
T:Notes : Original clefs : C1(from m12: C2), C3, F3 Editorial accidentals above the staff Original noter values have been halved Square brackets indicate ligatures See also the "Prima pars : Veritas de terra" by the same composer
T:Secunda Pars
T:©
T:©
T:©
T:©
C:Leonard Heydenhamer
Z:©
%%score [ 1 2 3 ]
L:1/8
Q:1/4=120
M:2/2
K:C
V:1 treble nm="Alto" snm="S"
V:2 treble-8 nm="Tenor" snm="T"
V:3 bass nm="Bass" snm="B"
V:1
 E6 E2 | E8 | F4 F4 | E4 A,4 | c6 B2 | A2 G2 F2 E2 | D2 G2 A2 c2 | B2 A4 GF | E4 z2 E2- | %9
w: Et- e-|nim|Do- mi-|* nus|da- bit|be- ni- gni- ta-|tem, [be- ni- gni-|ta- * * *|tem], et|
 E2 E4 E2 | E4 A4 | A2 A3 GFE | D8 | z2 A4 A2 | G2 E2 G4 | F4 E4- | E4 z2 E2 | D2 E4 D2 | %18
w: _ ter- ra|no- stra|da- * * * *|bit,|da- bit|fru- ctum su-|* um,|_ da-|bit fru- ctum|
 C3 B,/A,/ B,4 | B,8 | z2 C2 C3 C | D6 D2 | E2 C4 B,2 | A,4 D2 C2 | F4 E2 D2- | DCB,A, B,4 | %26
w: su- * * *|um,|iu- sti- ci-|a an-|te e- *|um am- bu-|la- * *||
 A,4 z4 | z8 | z8 | z4 z2 D2 | D4 D4 | z2 D2 F4 | E4 z4 | z2 G4 G2 | A2 c2 B3 A | G2 F2 E2 F2- | %36
w: bit,|||et|po- net|in vi-|a|gres- sus|su- * * *||
 FE E4 D2 | E8- | E8 |] %39
w: |os.|_|
V:2
 G6 G2 | G4 A4- | A4 B4 | c8 | A4 A4- | A4 A4 | B4 c4 | d8 | c8 | z4 c4 | c8 | c8 | B8 | %13
w: Et- e-|nim Do-|* mi-|nus|da- bit|_ be-|ni- gni-|ta-|tem,|et|ter-|ra|no-|
 A4 z2 c2- | c2 c2 B2 G2 | A4 G2 c2- | c2 c2 B2 G2 | B4 A4 | G8 | z2 G2 G3 G | A4 z2 A2 | %21
w: stra da-|* bit fru- ctum|su- um, fru-|* ctum su- *||um,|iu- sti- ci-|a an-|
 B2 G4 F2 | E4 A2 G2 | c4 B2 A2- | A2 d2 c2 B2- |"^#" BA A4 G2 | A4 z2 A2 | A4 A4 | z2 A2 c4 | B8 | %30
w: te e- um|am- bu- la-||||bit, et|po- net|in vi-|a|
 z2 B2 A2 B2- | B2 AG A2 d2- | d2 c2 d2 f2 | e3 d c2 B2 | A4 d4 | e3 d cB A2- | A2 G2 A4 | B4 c4 | %38
w: gres- sus su-|||||os. _ _ _ _|_ _ _||
 B8 |] %39
w: |
V:3
 C,8 | C,4 C,4 | D,4 D,4 | C,4 F,4- | F,4 F,4 | F,8 | G,4 F,2 E,2 | D,8 | A,8- | A,8 | z4 F,4- | %11
w: Et-|e- nim|Do- mi-|nus da-|* bit|be-|ni- gni- *|ta-|tem,|_|et|
 F,4 F,4 | G,8 | F,8 | E,8 | z4 z2 A,2- | A,2 A,2 G,2 E,2 | G,4 F,4 | E,8- | E,8 | z8 | z8 | z8 | %23
w: _ ter-|ra|no-|stra|da-|* bit fru- ctum|su- *|um,|||||
 z8 | z8 | z8 | z2 D,2 D,4 | D,4 z2 D,2 | F,4 E,4 | G,8 | G,4 F,2 G,2- | G,2 F,E, D,4 | z4 D,4 | %33
w: |||et po-|net in|vi- a|gres-|sus su- *|* * * os,|gres-|
 E,8 | F,4 G,3 F, | G,2 A,3 G,F,E, | D,2 E,2 F,4 | E,8- | E,8 |] %39
w: sus|su- * *|||os.|_|

